packages/core/src/svgs/tokens/mono/HMND.svg

<svg width="24" height="24" viewBox="0 0 24 24" fill="none" xmlns="http://www.w3.org/2000/svg">
<path d="M21.9992 20.662L12.0121 3.25024L2 20.7495C3.03744 20.2683 4.70613 19.6745 6.20606 19.6745C7.06853 19.6745 7.91849 19.8432 8.56846 19.9745C8.95595 20.0496 9.30598 20.1245 9.49964 20.1245C11.2121 20.1245 12.6058 19.0558 13.2995 18.5308C13.5245 18.3621 13.6745 18.2496 13.7369 18.2496C14.1744 18.2496 14.3745 18.5745 14.5681 18.887C14.7682 19.1995 14.9619 19.5058 15.3682 19.5058C15.5306 19.5058 15.6432 19.3808 15.7682 19.2433C15.9243 19.0683 16.0993 18.8746 16.4056 18.8746C17.1055 18.8746 17.5744 19.6745 17.7618 20.1183C17.8118 19.8995 18.0305 19.5058 18.4743 19.5058C18.8056 19.5058 19.0055 19.812 19.1742 20.0682C19.2992 20.2432 19.3993 20.3996 19.5117 20.3996C19.6117 20.3996 19.668 20.3621 19.7492 20.3183C19.8868 20.2308 20.0804 20.1183 20.668 20.1183C21.1804 20.1183 21.6367 20.3682 21.9929 20.662H21.9992Z" fill="white"/>
<path d="M22 20.6744L12.0192 3.25024L2.01953 20.7245C3.05699 20.1995 4.70692 19.5058 6.20685 19.5058C7.06932 19.5058 7.91929 19.7433 8.56925 19.9246C8.95674 20.037 9.30677 20.1245 9.50043 20.1245C11.2129 20.1245 12.6065 19.062 13.3002 18.5371C13.5253 18.3621 13.6753 18.2496 13.7377 18.2496C14.1752 18.2496 14.3753 18.5684 14.5752 18.887C14.769 19.1995 14.9627 19.4995 15.3752 19.4995C15.5314 19.4995 15.644 19.3745 15.769 19.237C15.9251 19.0683 16.1001 18.8746 16.4064 18.8746C17.1063 18.8746 17.5752 19.687 17.7626 20.1245C17.8126 19.9121 18.0313 19.4995 18.4751 19.4995C18.8064 19.4995 19.0063 19.812 19.175 20.062C19.3 20.2432 19.4 20.3996 19.5125 20.3996C19.6125 20.3996 19.6688 20.3621 19.75 20.3183C19.8875 20.237 20.0812 20.1308 20.6687 20.1308C21.1812 20.1308 21.6437 20.3807 22 20.6744Z" fill="white"/>
</svg>

<svg xmlns="http://www.w3.org/2000/svg" width="24" height="24" fill="none" viewBox="0 0 24 24">
    <path fill="#fff" d="M22 20.662 12.011 3.25 2 20.75c1.037-.482 2.706-1.076 4.206-1.076.863 0 1.712.17 2.362.3.388.076.738.15.932.15 1.712 0 3.106-1.068 3.8-1.593.224-.169.374-.281.437-.281.437 0 .637.325.831.637.2.313.394.619.8.619.163 0 .275-.125.4-.263.156-.175.331-.368.638-.368.7 0 1.168.8 1.356 1.243.05-.218.268-.612.712-.612.332 0 .532.306.7.562.125.175.225.332.338.332.1 0 .156-.038.237-.082.138-.087.331-.2.919-.2.512 0 .969.25 1.325.544z"/>
    <path fill="#fff" d="M22 20.674 12.02 3.25l-10 17.475c1.037-.526 2.687-1.22 4.187-1.22.862 0 1.712.238 2.362.42.388.112.738.2.931.2 1.713 0 3.107-1.063 3.8-1.588.225-.175.375-.287.438-.287.437 0 .637.318.837.637.194.313.388.613.8.613.156 0 .269-.125.394-.263.156-.169.331-.362.637-.362.7 0 1.17.812 1.357 1.25.05-.213.268-.625.712-.625.331 0 .531.312.7.562.125.181.225.338.337.338.1 0 .157-.038.238-.082.137-.081.331-.187.919-.187.512 0 .975.25 1.331.543"/>
</svg>
